public/titres/bio.svg

<?xml version="1.0" encoding="UTF-8" standalone="no"?>
<!-- Generator: Adobe Illustrator 15.0.0, SVG Export Plug-In . SVG Version: 6.00 Build 0)  -->

<svg
   xmlns:dc="http://purl.org/dc/elements/1.1/"
   xmlns:cc="http://creativecommons.org/ns#"
   xmlns:rdf="http://www.w3.org/1999/02/22-rdf-syntax-ns#"
   xmlns:svg="http://www.w3.org/2000/svg"
   xmlns="http://www.w3.org/2000/svg"
   xmlns:sodipodi="http://sodipodi.sourceforge.net/DTD/sodipodi-0.dtd"
   xmlns:inkscape="http://www.inkscape.org/namespaces/inkscape"
   version="1.1"
   id="Calque_1"
   x="0px"
   y="0px"
   width="41.857368"
   height="26.513071"
   viewBox="0 0 41.857367 26.51307"
   enable-background="new 0 0 86.995 62.997"
   xml:space="preserve"
   inkscape:version="0.48.2 r9819"
   sodipodi:docname="bio.svg"><metadata
   id="metadata17"><rdf:RDF><cc:Work
       rdf:about=""><dc:format>image/svg+xml</dc:format><dc:type
         rdf:resource="http://purl.org/dc/dcmitype/StillImage" /><dc:title /></cc:Work></rdf:RDF></metadata><defs
   id="defs15" /><sodipodi:namedview
   pagecolor="#ffffff"
   bordercolor="#666666"
   borderopacity="1"
   objecttolerance="10"
   gridtolerance="10"
   guidetolerance="10"
   inkscape:pageopacity="0"
   inkscape:pageshadow="2"
   inkscape:window-width="640"
   inkscape:window-height="480"
   id="namedview13"
   showgrid="false"
   inkscape:zoom="3.74621"
   inkscape:cx="36.554286"
   inkscape:cy="-1.6198195"
   inkscape:window-x="268"
   inkscape:window-y="0"
   inkscape:window-maximized="0"
   inkscape:current-layer="Calque_1"
   fit-margin-top="0"
   fit-margin-left="0"
   fit-margin-right="0"
   fit-margin-bottom="0" />
<g
   id="g3"
   style="fill:#ffffff"
   transform="matrix(0.9988779,-0.04735969,0.04735969,0.9988779,-20.123528,-16.127612)">
	<path
   clip-rule="evenodd"
   d="m 24.788,17.321 c 0.547,2.973 0.986,6.054 1.44,9.12 6.286,-0.896 11.817,3.263 9.6,9.6 -1.417,4.053 -8.016,4.892 -12.48,5.52 -1.941,-7.099 -3.691,-14.388 -4.08,-23.04 1.732,-0.508 3.312,-1.169 5.52,-1.2 z m 2.88,18.96 c 1.425,-0.095 2.341,-0.699 3.36,-1.2 0.337,-2.897 -1.628,-3.492 -3.84,-3.84 -0.054,1.893 0.49,3.19 0.48,5.04 z"
   id="path5"
   style="fill:#ffffff;fill-rule:evenodd"
   inkscape:connector-curvature="0" />
	<path
   clip-rule="evenodd"
   d="m 43.268,23.321 c 3.321,4.787 -5.295,6.064 -4.08,1.2 0.342,-1.37 2.355,-2.128 4.08,-1.2 z"
   id="path7"
   style="fill:#ffffff;fill-rule:evenodd"
   inkscape:connector-curvature="0" />
	<path
   clip-rule="evenodd"
   d="m 52.868,28.841 c 10.445,-0.727 9.617,16.762 -0.72,16.32 -8.286,-0.355 -8.36,-15.689 0.72,-16.32 z m 1.441,5.04 c -4.712,-2.457 -5.7,7.854 0.239,5.52 1.496,-1.328 1.17,-4.786 -0.239,-5.52 z"
   id="path9"
   style="fill:#ffffff;fill-rule:evenodd"
   inkscape:connector-curvature="0" />
	<path
   clip-rule="evenodd"
   d="m 43.508,30.041 c -0.241,3.548 -0.61,8.969 -1.92,12.24 -1.637,-0.216 -3.577,0.34 -4.56,0 0.021,-4.858 0.595,-9.165 1.68,-12.96 1.797,0.043 3.611,0.069 4.8,0.72 z"
   id="path11"
   style="fill:#ffffff;fill-rule:evenodd"
   inkscape:connector-curvature="0" />
</g>
</svg>

<?xml version="1.0" encoding="UTF-8" standalone="no"?>
<!-- Generator: Adobe Illustrator 15.0.0, SVG Export Plug-In . SVG Version: 6.00 Build 0)  -->

<svg
   xmlns:dc="http://purl.org/dc/elements/1.1/"
   xmlns:cc="http://creativecommons.org/ns#"
   xmlns:rdf="http://www.w3.org/1999/02/22-rdf-syntax-ns#"
   xmlns:svg="http://www.w3.org/2000/svg"
   xmlns="http://www.w3.org/2000/svg"
   xmlns:sodipodi="http://sodipodi.sourceforge.net/DTD/sodipodi-0.dtd"
   xmlns:inkscape="http://www.inkscape.org/namespaces/inkscape"
   version="1.1"
   id="Calque_1"
   x="0px"
   y="0px"
   width="86.995px"
   height="62.997px"
   viewBox="0 0 86.995 62.997"
   enable-background="new 0 0 86.995 62.997"
   xml:space="preserve"
   inkscape:version="0.48.2 r9819"
   sodipodi:docname="bio.svg"><metadata
   id="metadata17"><rdf:RDF><cc:Work
       rdf:about=""><dc:format>image/svg+xml</dc:format><dc:type
         rdf:resource="http://purl.org/dc/dcmitype/StillImage" /><dc:title></dc:title></cc:Work></rdf:RDF></metadata><defs
   id="defs15" /><sodipodi:namedview
   pagecolor="#ffffff"
   bordercolor="#666666"
   borderopacity="1"
   objecttolerance="10"
   gridtolerance="10"
   guidetolerance="10"
   inkscape:pageopacity="0"
   inkscape:pageshadow="2"
   inkscape:window-width="640"
   inkscape:window-height="480"
   id="namedview13"
   showgrid="false"
   inkscape:zoom="3.74621"
   inkscape:cx="43.497501"
   inkscape:cy="31.498501"
   inkscape:window-x="0"
   inkscape:window-y="0"
   inkscape:window-maximized="0"
   inkscape:current-layer="Calque_1" />
<g
   id="g3"
   style="fill:#ffffff">
	<path
   fill-rule="evenodd"
   clip-rule="evenodd"
   d="M24.788,17.321c0.547,2.973,0.986,6.054,1.44,9.12   c6.286-0.896,11.817,3.263,9.6,9.6c-1.417,4.053-8.016,4.892-12.48,5.52c-1.941-7.099-3.691-14.388-4.08-23.04   C21,18.013,22.58,17.352,24.788,17.321z M27.668,36.281c1.425-0.095,2.341-0.699,3.36-1.2c0.337-2.897-1.628-3.492-3.84-3.84   C27.134,33.134,27.678,34.431,27.668,36.281z"
   id="path5"
   style="fill:#ffffff" />
	<path
   fill-rule="evenodd"
   clip-rule="evenodd"
   d="M43.268,23.321c3.321,4.787-5.295,6.064-4.08,1.2   C39.53,23.151,41.543,22.393,43.268,23.321z"
   id="path7"
   style="fill:#ffffff" />
	<path
   fill-rule="evenodd"
   clip-rule="evenodd"
   d="M52.868,28.841c10.445-0.727,9.617,16.762-0.72,16.32   C43.862,44.806,43.788,29.472,52.868,28.841z M54.309,33.881c-4.712-2.457-5.7,7.854,0.239,5.52   C56.044,38.073,55.718,34.615,54.309,33.881z"
   id="path9"
   style="fill:#ffffff" />
	<path
   fill-rule="evenodd"
   clip-rule="evenodd"
   d="M43.508,30.041c-0.241,3.548-0.61,8.969-1.92,12.24   c-1.637-0.216-3.577,0.34-4.56,0c0.021-4.858,0.595-9.165,1.68-12.96C40.505,29.364,42.319,29.39,43.508,30.041z"
   id="path11"
   style="fill:#ffffff" />
</g>
</svg>
